assets/img/braze_icons/save-03.svg

<svg fill="none" height="24" viewBox="0 0 24 24" width="24" xmlns="http://www.w3.org/2000/svg"><g clip-rule="evenodd" fill="#801ed7" fill-rule="evenodd"><path d="m15.405 4.02773c-.0883-.0212-.1937-.02763-.7305-.02763h-7.6745c-.55228 0-1-.44771-1-1 0-.55228.44772-1 1-1h7.6745c.028 0 .0558-.00002.0833-.00005.4069-.00038.7657-.00071 1.1141.08294.3061.07349.5988.19471.8672.35919.3055.18724.5589.44115.8464.72913.0195.0195.0391.03915.0589.05894l3.1254 3.12549c.0198.0198.0395.03941.059.05887.288.28745.5419.54088.7291.84642.1645.26842.2857.56105.3592.86716.0837.34845.0833.70719.083 1.11409-.0001.02754-.0001.05531-.0001.0833v7.67452c0 .5523-.4477 1-1 1s-1-.4477-1-1v-7.67452c0-.53677-.0064-.64218-.0276-.7305-.0245-.10203-.0649-.19958-.1198-.28905-.0474-.07744-.1174-.15652-.497-.53608l-3.1254-3.12548c-.3796-.37956-.4587-.44955-.5361-.49701-.0895-.05483-.187-.09523-.2891-.11973z"/><path d="m13.8883 5.49996c.1899-.00051.429-.00115.6644.05535.2041.04899.3991.1298.5781.23946.2063.12645.375.296.5089.43065l.036.03615 2.0628 2.06274.0361.03603c.1347.13393.3042.30257.4307.50893.1096.17894.1904.37403.2394.5781.0565.23531.0559.47448.0554.66443l-.0001.051v7.6759c0 .5271 0 .9818-.0306 1.3564-.0323.3953-.1036.7885-.2964 1.1669-.2876.5645-.7465 1.0234-1.311 1.3111-.3784.1928-.7716.2641-1.167.2964-.3745.0306-.8294.0306-1.3565.0305h-8.17714c-.5271.0001-.98184.0001-1.35638-.0305-.39535-.0323-.78857-.1036-1.16695-.2964-.56448-.2877-1.02343-.7466-1.31105-1.3111-.19279-.3784-.26411-.7716-.29641-1.1669-.0306-.3746-.03059-.8294-.03057-1.3565v-8.17713c-.00002-.52712-.00003-.9819.03057-1.35645.0323-.39534.10362-.78856.29641-1.16694.28762-.56449.74657-1.02343 1.31105-1.31105.37838-.19279.7716-.26411 1.16695-.29641.37457-.03061.82933-.03059 1.35648-.03057h7.67584zm-1.9883 9.50014h-3.3c-.56005 0-.84008 0-1.05399.109-.18816.0959-.34114.2488-.43701.437-.109.2139-.109.4939-.109 1.054v3.4h6.5v-3.4c0-.5601 0-.8401-.109-1.054-.0959-.1882-.2488-.3411-.437-.437-.2139-.109-.4939-.109-1.054-.109zm-3.9-6.5c0-.55228-.44771-1-1-1-.55228 0-1 .44772-1 1v.02648c-.00002.21004-.00004.41467.01184.58875.01299.19037.04346.4161.14041.65014.20298.49003.59233.87943 1.08239 1.08243.23404.0969.45977.1274.65014.1404.17408.0118.37871.0118.58875.0118h4.02647c.5523 0 1-.4477 1-1 0-.55228-.4477-1-1-1h-4.5z"/></g></svg>

<svg width="24" height="24" viewBox="0 0 24 24" fill="none" xmlns="http://www.w3.org/2000/svg">
<path fill-rule="evenodd" clip-rule="evenodd" d="M15.405 4.02773C15.3167 4.00653 15.2113 4.0001 14.6745 4.0001H7C6.44772 4.0001 6 3.55239 6 3.0001C6 2.44782 6.44772 2.0001 7 2.0001H14.6745C14.7025 2.0001 14.7303 2.00008 14.7578 2.00005C15.1647 1.99967 15.5235 1.99934 15.8719 2.08299C16.178 2.15648 16.4707 2.2777 16.7391 2.44218C17.0446 2.62942 17.298 2.88333 17.5855 3.17131C17.605 3.19081 17.6246 3.21046 17.6444 3.23025L20.7698 6.35574C20.7896 6.37554 20.8093 6.39515 20.8288 6.41461C21.1168 6.70206 21.3707 6.95549 21.5579 7.26103C21.7224 7.52945 21.8436 7.82208 21.9171 8.12819C22.0008 8.47664 22.0004 8.83538 22.0001 9.24228C22 9.26982 22 9.29759 22 9.32558V17.0001C22 17.5524 21.5523 18.0001 21 18.0001C20.4477 18.0001 20 17.5524 20 17.0001V9.32558C20 8.78881 19.9936 8.6834 19.9724 8.59508C19.9479 8.49305 19.9075 8.3955 19.8526 8.30603C19.8052 8.22859 19.7352 8.14951 19.3556 7.76995L16.2302 4.64447C15.8506 4.26491 15.7715 4.19492 15.6941 4.14746C15.6046 4.09263 15.5071 4.05223 15.405 4.02773Z" fill="#801ED7"/>
<path fill-rule="evenodd" clip-rule="evenodd" d="M13.8883 5.49996C14.0782 5.49945 14.3173 5.49881 14.5527 5.55531C14.7568 5.6043 14.9518 5.68511 15.1308 5.79477C15.3371 5.92122 15.5058 6.09077 15.6397 6.22542L15.6757 6.26157L17.7385 8.32431L17.7746 8.36034C17.9093 8.49427 18.0788 8.66291 18.2053 8.86927C18.3149 9.04821 18.3957 9.2433 18.4447 9.44737C18.5012 9.68268 18.5006 9.92185 18.5001 10.1118L18.5 10.1628V17.8387C18.5 18.3658 18.5 18.8205 18.4694 19.1951C18.4371 19.5904 18.3658 19.9836 18.173 20.362C17.8854 20.9265 17.4265 21.3854 16.862 21.6731C16.4836 21.8659 16.0904 21.9372 15.695 21.9695C15.3205 22.0001 14.8656 22.0001 14.3385 22H6.16136C5.63426 22.0001 5.17952 22.0001 4.80498 21.9695C4.40963 21.9372 4.01641 21.8659 3.63803 21.6731C3.07355 21.3854 2.6146 20.9265 2.32698 20.362C2.13419 19.9836 2.06287 19.5904 2.03057 19.1951C1.99997 18.8205 1.99998 18.3657 2 17.8386V9.66147C1.99998 9.13435 1.99997 8.67957 2.03057 8.30502C2.06287 7.90968 2.13419 7.51646 2.32698 7.13808C2.6146 6.57359 3.07355 6.11465 3.63803 5.82703C4.01641 5.63424 4.40963 5.56292 4.80498 5.53062C5.17955 5.50001 5.63431 5.50003 6.16146 5.50005L13.8373 5.50005L13.8883 5.49996ZM11.9 15.0001H8.6C8.03995 15.0001 7.75992 15.0001 7.54601 15.1091C7.35785 15.205 7.20487 15.3579 7.109 15.5461C7 15.76 7 16.04 7 16.6001V20.0001H13.5V16.6001C13.5 16.04 13.5 15.76 13.391 15.5461C13.2951 15.3579 13.1422 15.205 12.954 15.1091C12.7401 15.0001 12.4601 15.0001 11.9 15.0001ZM8 8.5001C8 7.94782 7.55229 7.5001 7 7.5001C6.44772 7.5001 6 7.94782 6 8.5001L6 8.52658C5.99998 8.73662 5.99996 8.94125 6.01184 9.11533C6.02483 9.3057 6.0553 9.53143 6.15225 9.76547C6.35523 10.2555 6.74458 10.6449 7.23464 10.8479C7.46868 10.9448 7.69441 10.9753 7.88478 10.9883C8.05886 11.0001 8.26349 11.0001 8.47353 11.0001L12.5 11.0001C13.0523 11.0001 13.5 10.5524 13.5 10.0001C13.5 9.44782 13.0523 9.0001 12.5 9.0001H8V8.5001Z" fill="#801ED7"/>
</svg>
